X:3164
T:Cold Rolled Steel
M:4/4
L:1/8
Q:180
S:Transcribed from Pete Martin jamming at Weiser.
Z:by Llarry Brandon
K:E
"Parts played in this order by Pete: AA,BB,AA,BB,C,A,B,D"
.e2 .e2||:e2 egfe cd|efec B2 ef|gfgf ec (B/2c/2d/2)|efec B4|!
e2 efec Bc|"4"e"0"efe g2 ef|gb (f/2g/2f/2) efgf|1ec BG E4:|2ec BG E2 FE|
!
P:B
|:G2 EG FECE|G2 EC B,CEF|G2 BG Bcec|geBG E2 FE|!
G2 EG FECE|G2 EC B,CEG|FEFG BcdB|1(c/2e/2c/2) BG E2 FE:|2(c/2e/2c/2) BG
E4||!
P:C
"3rd Position"ebd'b d'bab|d'bag e2 "1st Position"(B/2c/2d/2)|eceg fbgf|e
gfe c2 d2|!
"3rd Position"ebd'b d'bab|d'bag e2 "1st Position"(B/2c/2d/2)|eceg fbgf|e
cBG E4:||!
P:D
"slide"[B2G2] "Pic" e2 GFEF|GFEC B,4|"slide"[B2G2] "Picasso" e2 GFEC
|B,CEF
E4|!
"slide"[B2G2] "Pic" e2 GFEF|GFEC B,CEG|FEFG Bcec|geBG E2 [B2E2] :||!
"Parts played in this order by Pete: AA,BB,AA,BB,C,A,B,D"


